images/ic_camera.svg

<svg width="16" height="16" viewBox="0 0 16 16" fill="none" xmlns="http://www.w3.org/2000/svg">
<g clip-path="url(#clip0)">
<path d="M15.4677 3.66559C15.1483 3.33099 14.7072 3.13327 14.2053 3.13327H11.6806V3.10285C11.6806 2.72262 11.5285 2.35761 11.27 2.11426C11.0114 1.8557 10.6616 1.70361 10.2814 1.70361H5.71863C5.32319 1.70361 4.97338 1.8557 4.71483 2.11426C4.45627 2.37281 4.30418 2.72262 4.30418 3.10285V3.13327H1.79468C1.29278 3.13327 0.851711 3.33099 0.532319 3.66559C0.212928 3.98498 0 4.44126 0 4.92795V12.5021C0 13.004 0.197719 13.4451 0.532319 13.7644C0.851711 14.0838 1.30798 14.2968 1.79468 14.2968H14.2053C14.7072 14.2968 15.1483 14.099 15.4677 13.7644C15.7871 13.4451 16 12.9888 16 12.5021V4.92795C16 4.42605 15.8023 3.98498 15.4677 3.66559ZM15.2091 12.5021H15.1939C15.1939 12.7759 15.0875 13.0192 14.9049 13.2017C14.7224 13.3842 14.4791 13.4907 14.2053 13.4907H1.79468C1.52091 13.4907 1.27757 13.3842 1.09506 13.2017C0.912548 13.0192 0.806084 12.7759 0.806084 12.5021V4.92795C0.806084 4.65418 0.912548 4.41084 1.09506 4.22833C1.27757 4.04582 1.52091 3.93935 1.79468 3.93935H4.73004C4.95818 3.93935 5.14068 3.75684 5.14068 3.52871V3.08764C5.14068 2.92034 5.20152 2.76825 5.30799 2.66179C5.41445 2.55532 5.56654 2.49449 5.73384 2.49449H10.2814C10.4487 2.49449 10.6008 2.55532 10.7072 2.66179C10.8137 2.76825 10.8745 2.92034 10.8745 3.08764V3.52871C10.8745 3.75684 11.057 3.93935 11.2852 3.93935H14.2205C14.4943 3.93935 14.7376 4.04582 14.9202 4.22833C15.1027 4.41084 15.2091 4.65418 15.2091 4.92795V12.5021Z" fill="#979797"/>
<path d="M7.99999 4.97363C6.96577 4.97363 6.0228 5.39949 5.3536 6.06869C4.66919 6.7531 4.25854 7.68086 4.25854 8.71508C4.25854 9.7493 4.6844 10.6923 5.3536 11.3615C6.03801 12.0459 6.96577 12.4565 7.99999 12.4565C9.03421 12.4565 9.97718 12.0307 10.6464 11.3615C11.3308 10.6771 11.7414 9.7493 11.7414 8.71508C11.7414 7.68086 11.3156 6.73789 10.6464 6.06869C9.97718 5.39949 9.03421 4.97363 7.99999 4.97363ZM10.0684 10.7987C9.53611 11.3158 8.80607 11.6504 7.99999 11.6504C7.19391 11.6504 6.46387 11.3158 5.93155 10.7987C5.39923 10.2664 5.07984 9.53637 5.07984 8.73029C5.07984 7.9242 5.41444 7.19417 5.93155 6.66185C6.46387 6.12953 7.19391 5.81013 7.99999 5.81013C8.80607 5.81013 9.53611 6.14474 10.0684 6.66185C10.6007 7.19417 10.9201 7.9242 10.9201 8.73029C10.9354 9.53637 10.6007 10.2664 10.0684 10.7987Z" fill="#979797"/>
<path d="M13.4144 6.44899C13.826 6.44899 14.1597 6.11533 14.1597 5.70374C14.1597 5.29215 13.826 4.9585 13.4144 4.9585C13.0028 4.9585 12.6692 5.29215 12.6692 5.70374C12.6692 6.11533 13.0028 6.44899 13.4144 6.44899Z" fill="#979797"/>
</g>
<defs>
<clipPath id="clip0">
<rect width="16" height="16" fill="white"/>
</clipPath>
</defs>
</svg>

<svg xmlns="http://www.w3.org/2000/svg" fill="none" viewBox="0 0 16 16"><g clip-path="url(#A)" fill="#979797"><path d="M15.468 3.666a1.72 1.72 0 0 0-1.262-.532H11.68v-.03a1.45 1.45 0 0 0-.4-1 1.39 1.39 0 0 0-.989-.411H5.72a1.4 1.4 0 0 0-1.004.411 1.39 1.39 0 0 0-.411.989v.03h-2.5a1.72 1.72 0 0 0-1.262.532A1.81 1.81 0 0 0 0 4.928v7.574a1.72 1.72 0 0 0 .532 1.262 1.81 1.81 0 0 0 1.262.532h12.4a1.72 1.72 0 0 0 1.262-.532c.32-.32.532-.776.532-1.262V4.928a1.72 1.72 0 0 0-.532-1.262zm-.26 8.837h-.015a.97.97 0 0 1-.29.7.98.98 0 0 1-.7.29H1.795c-.274 0-.517-.107-.7-.3s-.3-.426-.3-.7V4.928a.97.97 0 0 1 .29-.7.98.98 0 0 1 .7-.29H4.73a.41.41 0 0 0 .411-.411v-.44c0-.167.06-.32.167-.426s.26-.167.426-.167h4.548c.167 0 .32.06.426.167s.167.26.167.426v.44a.41.41 0 0 0 .411.411h2.935a.97.97 0 0 1 .7.29.98.98 0 0 1 .29.7v7.574zM8 4.974a3.75 3.75 0 0 0-2.646 1.095 3.71 3.71 0 0 0-1.095 2.646 3.75 3.75 0 0 0 1.095 2.646A3.71 3.71 0 0 0 8 12.457a3.75 3.75 0 0 0 2.646-1.095 3.71 3.71 0 0 0 1.095-2.646A3.75 3.75 0 0 0 8 4.974zm2.068 5.825c-.532.517-1.262.852-2.068.852s-1.536-.335-2.068-.852A2.91 2.91 0 0 1 5.08 8.73c0-.806.335-1.536.852-2.068C6.464 6.13 7.194 5.8 8 5.8s1.536.335 2.068.852c.532.532.852 1.262.852 2.068.015.806-.32 1.536-.852 2.068zm3.346-4.35c.412 0 .745-.334.745-.745s-.334-.745-.745-.745-.745.334-.745.745.334.745.745.745z"/></g><defs><clipPath id="A"><path fill="#fff" d="M0 0h16v16H0z"/></clipPath></defs></svg>
